X:1
P: Mi Y'malel
C: trad., arr. T. Traub 12-21-2003
M: 2/4
K: D
L: 1/8
Z: 65%
|:"D"DD/A,/ DE|FF/D/ EG|F2 A2|F2 A2|DD/A,/ DE|FF/D/ EF|"D"D2 "G"B,2|"D"D4 :|
